X: 49
M: C|
L: 1/8
K: Gm
(3Bcd G>d B>Gd>G | (3ABc F>c A>Fc>F |\
(3Bcd G>d B>Gd>G | (3ABc D>^F G>AB>A |
(3Bcd G>d B>Gd>G | (3ABc F>c A>Fc>F |\
(3Bcd G>d B>Gd>G | (3ABc D>^F G2 :|
|: A2 |\
(3gab f>d B>df>d | c>dc>B A>Bc>A |\

